X:78
T:Keppoch Desolate
T:A' Cheapach na fasach
R:Slow Air
S:Simon Fraser Collection
N:No.31
O:Scottish
M:9/8
L:1/8
Q:3/8=70
K:A
C|F2F F>^EF A2 z/ A/4B/4|c2 B/A/ A2 F/E/ E2 z/ A/4G/4|
F2F F>^EF A2 z/ B/4c/4|f2 c/B/ A2 F/^E/ F2:|
c|f2f f>ec c>B z/A/|c2 B/A/ A2 F/E/ E2 c/B/|A2 G F>^EF ABc|
f2 c/B/ A2 F/>^E/ F2c|
f2f f>ec c>B z/A/|c2 B/A/ A2 F/E/ E2 a/g/|fcB A2 G/F/ ABc|
f2 c/B/ A2 F/^E/ F2||

